images_elementary_svg/cmd/sc_freezepanesfirstrow.svg

<svg viewBox="0 0 16 16" xmlns="http://www.w3.org/2000/svg" xmlns:xlink="http://www.w3.org/1999/xlink"><linearGradient id="a" gradientTransform="matrix(.94103 0 0 1.027 .46 -4.56)" gradientUnits="userSpaceOnUse" x1="7" x2="7" y1="-4" y2="17"><stop offset="0" stop-color="#90dbec"/><stop offset=".262" stop-color="#55c1ec"/><stop offset=".705" stop-color="#3689e6"/><stop offset="1" stop-color="#2b63a0"/></linearGradient><linearGradient id="b" gradientTransform="matrix(.59436 0 0 .5999 -19.265 -.033)" gradientUnits="userSpaceOnUse" x1="25.132" x2="25.132" y1="15.5" y2="48.396"><stop offset="0" stop-color="#fafafa"/><stop offset="1" stop-color="#e2e1de"/></linearGradient><linearGradient id="c" gradientTransform="matrix(.98704 0 0 .88413 .093 -3.35)" gradientUnits="userSpaceOnUse" x1="7" x2="7" y1="2" y2="9"><stop offset="0" stop-color="#fff"/><stop offset=".5" stop-color="#fff" stop-opacity=".235"/><stop offset=".951" stop-color="#fff" stop-opacity=".157"/><stop offset="1" stop-color="#fff" stop-opacity=".392"/></linearGradient><g transform="translate(0 2)"><rect fill="url(#b)" height="14" rx=".424" ry=".491" width="14" x="1" y="-1"/><path d="m.5-2c-.276 0-.5.224-.5.5v15c0 .276.224.5.5.5h15c.276 0 .5-.224.5-.5v-15c0-.276-.224-.5-.5-.5zm.498.998h14.004v2.002h-4.002v-2h-1v2h-4v-2h-1v2h-4.002zm0 3.002h4.002v3h-4v1h4v3h-4v1h4v3h1v-3h4v3h1v-3h4v-1h-4v-3h4v-1h-4v-3h4.002v11.002h-14.004zm5.002 0h4v3h-4zm0 4h4v3h-4z" fill="#030303" opacity=".32"/><path d="m.5-2a.5.5 0 0 0 -.5.5v3.5h.998v-3.002h14.004v3.002h.998v-3.5a.5.5 0 0 0 -.5-.5zm4.5 1v2h-4v1h14v-1h-4v-2h-1v2h-4v-2z" fill="#004372" fill-opacity=".49"/><path d="m.5-1.48h15.02v3.082h-15.02z" fill="url(#a)"/><path d="m.5-1.48v3.082l1.01-.008-.01-2.156h13.063v2.164h.955v-3.08z" fill="url(#c)"/><path d="m5-1.506h1v3.074h-1zm5 0h1v3.103h-1z" fill="#004372" fill-opacity=".49"/></g></svg>

<svg xmlns="http://www.w3.org/2000/svg" xmlns:xlink="http://www.w3.org/1999/xlink" viewBox="0 0 16 16"><defs><linearGradient xlink:href="#a" id="d" x1="7" y1="-4" x2="7" y2="17" gradientUnits="userSpaceOnUse" gradientTransform="matrix(.94103 0 0 1.027 .46 -4.56)"/><linearGradient id="c" gradientTransform="matrix(.59436 0 0 .5999 -19.265 -.033)" gradientUnits="userSpaceOnUse" x1="25.132" x2="25.132" y1="15.5" y2="48.396"><stop offset="0" stop-color="#fafafa"/><stop offset="1" stop-color="#e2e1de"/></linearGradient><linearGradient id="b"><stop offset="0" stop-color="#fff"/><stop offset=".5" stop-color="#fff" stop-opacity=".235"/><stop offset=".951" stop-color="#fff" stop-opacity=".157"/><stop offset="1" stop-color="#fff" stop-opacity=".392"/></linearGradient><linearGradient xlink:href="#b" id="e" x1="7" y1="2" x2="7" y2="9" gradientUnits="userSpaceOnUse" gradientTransform="matrix(.98704 0 0 .88413 .093 -3.35)"/><linearGradient id="a" gradientTransform="matrix(.4922 0 0 .4584 4.51 -4.794)" gradientUnits="userSpaceOnUse" x1="23.732" x2="23.732" y1="5.394" y2="39.735"><stop offset="0" stop-color="#90dbec"/><stop offset=".262" stop-color="#55c1ec"/><stop offset=".705" stop-color="#3689e6"/><stop offset="1" stop-color="#2b63a0"/></linearGradient></defs><g transform="translate(0 2)"><rect height="14" rx=".424" ry=".491" width="14" x="1" y="-1" fill="url(#c)"/><path d="M.5-2c-.276 0-.5.224-.5.5v15c0 .276.224.5.5.5h15c.276 0 .5-.224.5-.5v-15c0-.276-.224-.5-.5-.5H.5zm.498.998h14.004V1H11v-2h-1v2H6v-2H5v2H.998v-2.002zM.998 2H5v3H1v1h4v3H1v1h4v3h1v-3h4v3h1v-3h4V9h-4V6h4V5h-4V2h4.002v11.002H.998V2zM6 2h4v3H6V2zm0 4h4v3H6V6z" opacity=".32" fill="#030303"/><path d="M.5-2a.5.5 0 0 0-.5.5V2h.998v-3.002h14.004V2H16v-3.5a.5.5 0 0 0-.5-.5zM5-1v2H1v1h14V1h-4v-2h-1v2H6v-2z" fill="#004372" fill-opacity=".49"/><path d="M.5-1.48H15.52v3.082H.5z" fill="url(#d)"/><path d="M.5-1.48v3.082l1.01-.008L1.5-.562h13.063v2.164h.955v-3.08z" fill="url(#e)"/><path fill="#004372" fill-opacity=".49" d="M5-1.506h1v3.074H5zM10-1.506h1v3.103h-1z"/></g></svg>
